imgs/whatsdifferent/forTeams.svg

<?xml version="1.0" encoding="UTF-8"?>
<svg width="45px" height="45px" viewBox="0 0 45 45" version="1.1" xmlns="http://www.w3.org/2000/svg" xmlns:xlink="http://www.w3.org/1999/xlink">
    <!-- Generator: Sketch 48.2 (47327) - http://www.bohemiancoding.com/sketch -->
    <title>forTeams</title>
    <desc>Created with Sketch.</desc>
    <defs></defs>
    <g id="Symbols" stroke="none" stroke-width="1" fill="none" fill-rule="evenodd">
        <g id="forTeams" fill-rule="nonzero">
            <g id="group" transform="translate(1.000000, 9.000000)">
                <path d="M29.8893878,8.95540816 L29.8893878,12.2637755 C29.8893878,12.8868367 30.135102,13.4660204 30.5563265,13.9047959 L30.5563265,15.0280612 C30.5563265,15.5107143 30.942449,15.8968367 31.425102,15.8968367 C31.9077551,15.8968367 32.2938776,15.5107143 32.2938776,15.0280612 L32.2938776,13.5011224 C32.2938776,13.2115306 32.1446939,12.9394898 31.9077551,12.7815306 C31.7322449,12.667449 31.6269388,12.4743878 31.6269388,12.2637755 L31.6269388,8.95540816 C31.6269388,7.79704082 32.5746939,6.84928571 33.7330612,6.84928571 L34.4438776,6.84928571 C35.6022449,6.84928571 36.55,7.79704082 36.55,8.95540816 L36.55,12.2637755 C36.55,12.4743878 36.4446939,12.667449 36.2691837,12.7815306 C36.0234694,12.9394898 35.8830612,13.2115306 35.8830612,13.5011224 L35.8830612,16.6866327 C35.8830612,17.0727551 36.1112245,17.432551 36.4534694,17.5992857 C36.8659184,17.8011224 39.0071429,18.8805102 40.9904082,20.5039796 C41.1571429,20.6443878 41.2536735,20.8462245 41.2536735,21.0743878 L41.2536735,22.4696939 L35.1634694,22.4696939 C34.6808163,22.4696939 34.2946939,22.8558163 34.2946939,23.3384694 C34.2946939,23.8211224 34.6808163,24.2072449 35.1634694,24.2072449 L42.122449,24.2072449 C42.605102,24.2072449 42.9912245,23.8211224 42.9912245,23.3384694 L42.9912245,21.0743878 C42.9912245,20.3284694 42.6665306,19.6352041 42.0873469,19.1613265 C40.3410204,17.7309184 38.4718367,16.6866327 37.6206122,16.2390816 L37.6206122,13.8960204 C38.0418367,13.4572449 38.287551,12.8780612 38.287551,12.255 L38.287551,8.94663265 C38.287551,6.82295918 36.5587755,5.10295918 34.4438776,5.10295918 L33.7330612,5.10295918 C31.6181633,5.11173469 29.8893878,6.83173469 29.8893878,8.95540816 Z" id="Shape" fill="#2C2F33"></path>
                <path d="M0.86877551,24.2072449 L7.93306122,24.2072449 C8.41571429,24.2072449 8.80183673,23.8211224 8.80183673,23.3384694 C8.80183673,22.8558163 8.41571429,22.4696939 7.93306122,22.4696939 L1.73755102,22.4696939 L1.73755102,21.0743878 C1.73755102,20.855 1.83408163,20.6443878 2.00081633,20.5039796 C3.97530612,18.8805102 6.12530612,17.7923469 6.5377551,17.5992857 C6.88877551,17.432551 7.10816327,17.0727551 7.10816327,16.6866327 L7.10816327,13.5011224 C7.10816327,13.2115306 6.95897959,12.9394898 6.72204082,12.7815306 C6.54653061,12.667449 6.44122449,12.4743878 6.44122449,12.2637755 L6.44122449,8.95540816 C6.44122449,7.79704082 7.38897959,6.84928571 8.54734694,6.84928571 L9.25816327,6.84928571 C10.4165306,6.84928571 11.3642857,7.79704082 11.3642857,8.95540816 L11.3642857,12.2637755 C11.3642857,12.4743878 11.2589796,12.667449 11.0834694,12.7815306 C10.8377551,12.9394898 10.6973469,13.2115306 10.6973469,13.5011224 L10.6973469,15.0982653 C10.6973469,15.5809184 11.0834694,15.9670408 11.5661224,15.9670408 C12.0487755,15.9670408 12.434898,15.5809184 12.434898,15.0982653 L12.434898,13.9047959 C12.8561224,13.4660204 13.1018367,12.8868367 13.1018367,12.2637755 L13.1018367,8.95540816 C13.1018367,6.83173469 11.3730612,5.11173469 9.25816327,5.11173469 L8.54734694,5.11173469 C6.42367347,5.11173469 4.70367347,6.8405102 4.70367347,8.95540816 L4.70367347,12.2637755 C4.70367347,12.8868367 4.94938776,13.4660204 5.37061224,13.9047959 L5.37061224,16.2478571 C4.51061224,16.6954082 2.65020408,17.7309184 0.903877551,19.170102 C0.333469388,19.6439796 0,20.3372449 0,21.0831633 L0,23.3384694 C3.11768751e-16,23.8211224 0.386122449,24.2072449 0.86877551,24.2072449 Z" id="Shape" fill="#2C2F33"></path>
                <path d="M26.7126531,8.99928571 L26.7126531,4.72561224 C26.7126531,2.11928571 24.5977551,0.0043877551 21.9914286,0.0043877551 L21.07,0.0043877551 C18.4636735,0.0043877551 16.3487755,2.11928571 16.3487755,4.72561224 L16.3487755,8.99928571 C16.3487755,9.77153061 16.6646939,10.4911224 17.2087755,11.0176531 L17.2087755,14.3084694 C16.1820408,14.835 13.6722449,16.2039796 11.3291837,18.1345918 C10.6446939,18.6962245 10.2585714,19.5211224 10.2585714,20.407449 L10.2585714,23.3384694 C10.2585714,23.8211224 10.6446939,24.2072449 11.1273469,24.2072449 L31.9253061,24.2072449 C32.4079592,24.2072449 32.7940816,23.8211224 32.7940816,23.3384694 L32.7940816,20.407449 C32.7940816,19.5211224 32.4079592,18.6962245 31.7234694,18.1345918 C29.3804082,16.2127551 26.8706122,14.835 25.8438776,14.3084694 L25.8438776,11.0176531 C26.3967347,10.499898 26.7126531,9.77153061 26.7126531,8.99928571 Z M30.6265306,19.4772449 C30.9073469,19.7054082 31.0653061,20.0476531 31.0653061,20.407449 L31.0653061,22.4696939 L12.004898,22.4696939 L12.004898,20.407449 C12.004898,20.0476531 12.1628571,19.7054082 12.4436735,19.4772449 C15.0236735,17.3535714 17.8230612,15.9407143 18.3583673,15.677449 C18.7181633,15.5019388 18.955102,15.1245918 18.955102,14.7296939 L18.955102,10.6052041 C18.955102,10.3156122 18.8059184,10.0435714 18.5689796,9.88561224 C18.2706122,9.68377551 18.095102,9.35908163 18.095102,9.00806122 L18.095102,4.73438776 C18.095102,3.08459184 19.4377551,1.75071429 21.0787755,1.75071429 L22.0002041,1.75071429 C23.65,1.75071429 24.9838776,3.09336735 24.9838776,4.73438776 L24.9838776,9.00806122 C24.9838776,9.35908163 24.8083673,9.69255102 24.51,9.88561224 C24.2642857,10.0435714 24.1238776,10.3156122 24.1238776,10.6052041 L24.1238776,14.7296939 C24.1238776,15.1333673 24.3608163,15.5019388 24.7206122,15.677449 C25.2471429,15.9407143 28.0465306,17.3623469 30.6265306,19.4772449 Z" id="Shape" fill="#4A90E2"></path>
            </g>
        </g>
    </g>
</svg>

<?xml version="1.0" encoding="utf-8"?>
<!-- Generator: Adobe Illustrator 16.0.0, SVG Export Plug-In . SVG Version: 6.00 Build 0)  -->
<!DOCTYPE svg PUBLIC "-//W3C//DTD SVG 1.1//EN" "http://www.w3.org/Graphics/SVG/1.1/DTD/svg11.dtd">
<svg version="1.1" id="Layer_1" xmlns="http://www.w3.org/2000/svg" xmlns:xlink="http://www.w3.org/1999/xlink" x="0px" y="0px"
	 width="45px" height="45px" viewBox="0 0 45 45" enable-background="new 0 0 45 45" xml:space="preserve">
<title>forTeams</title>
<desc>Created with Sketch.</desc>
<g id="Symbols">
	<g id="forTeams">
		<g id="group" transform="translate(1.000000, 9.000000)">
			<path id="Shape" fill="#5F64E9" d="M29.889,8.956v3.308c0,0.623,0.246,1.202,0.668,1.641v1.124c0,0.482,0.386,0.868,0.869,0.868
				c0.482,0,0.868-0.386,0.868-0.868v-1.527c0-0.29-0.149-0.562-0.386-0.719c-0.176-0.114-0.281-0.307-0.281-0.518V8.956
				c0-1.159,0.947-2.106,2.105-2.106h0.711c1.158,0,2.106,0.948,2.106,2.106v3.308c0,0.211-0.104,0.404-0.28,0.518
				c-0.246,0.158-0.387,0.43-0.387,0.719v3.186c0,0.386,0.229,0.746,0.57,0.913c0.412,0.201,2.555,1.281,4.537,2.904
				c0.167,0.141,0.264,0.342,0.264,0.57v1.396h-6.09c-0.483,0-0.869,0.386-0.869,0.868c0,0.483,0.386,0.869,0.869,0.869h6.959
				c0.482,0,0.868-0.386,0.868-0.869v-2.264c0-0.746-0.325-1.439-0.903-1.913c-1.747-1.431-3.616-2.475-4.467-2.922v-2.343
				c0.421-0.439,0.666-1.018,0.666-1.641V8.947c0-2.124-1.729-3.844-3.844-3.844h-0.711C31.618,5.112,29.889,6.832,29.889,8.956z"/>
			<path id="Shape_1_" fill="#5F64E9" d="M0.869,24.207h7.064c0.482,0,0.869-0.386,0.869-0.869c0-0.482-0.386-0.868-0.869-0.868
				H1.737v-1.396c0-0.219,0.097-0.43,0.264-0.57c1.974-1.623,4.125-2.711,4.537-2.904c0.351-0.167,0.571-0.527,0.571-0.913v-3.186
				c0-0.29-0.149-0.562-0.386-0.719c-0.176-0.114-0.281-0.307-0.281-0.518V8.956c0-1.159,0.948-2.106,2.106-2.106h0.711
				c1.158,0,2.106,0.948,2.106,2.106v3.308c0,0.211-0.105,0.404-0.281,0.518c-0.246,0.158-0.386,0.43-0.386,0.719v1.597
				c0,0.483,0.386,0.869,0.869,0.869c0.483,0,0.869-0.386,0.869-0.869v-1.193c0.421-0.439,0.667-1.018,0.667-1.641V8.956
				c0-2.124-1.729-3.844-3.844-3.844H8.547c-2.124,0-3.844,1.729-3.844,3.844v3.308c0,0.623,0.246,1.202,0.667,1.641v2.343
				c-0.86,0.447-2.72,1.482-4.467,2.922C0.333,19.645,0,20.338,0,21.083v2.255C0,23.821,0.386,24.207,0.869,24.207z"/>
			<path id="Shape_2_" fill="#5F64E9" d="M26.713,9V4.726c0-2.606-2.115-4.721-4.722-4.721H21.07c-2.606,0-4.721,2.115-4.721,4.721
				V9c0,0.772,0.316,1.492,0.86,2.018v3.291c-1.027,0.526-3.537,1.896-5.88,3.826c-0.685,0.562-1.07,1.387-1.07,2.272v2.931
				c0,0.483,0.386,0.869,0.869,0.869h20.798c0.482,0,0.868-0.386,0.868-0.869v-2.931c0-0.886-0.386-1.711-1.07-2.272
				c-2.343-1.922-4.853-3.3-5.88-3.826v-3.291C26.396,10.5,26.713,9.771,26.713,9z M30.627,19.477
				c0.28,0.229,0.438,0.571,0.438,0.931v2.062H12.005v-2.062c0-0.359,0.158-0.702,0.439-0.931c2.58-2.123,5.379-3.535,5.915-3.799
				c0.36-0.176,0.597-0.553,0.597-0.948v-4.125c0-0.29-0.149-0.562-0.386-0.719c-0.298-0.202-0.474-0.527-0.474-0.878V4.734
				c0-1.65,1.343-2.984,2.983-2.984H22c1.65,0,2.984,1.343,2.984,2.984v4.273c0,0.351-0.176,0.685-0.475,0.878
				c-0.246,0.158-0.386,0.43-0.386,0.719v4.125c0,0.403,0.237,0.772,0.597,0.948C25.247,15.941,28.047,17.362,30.627,19.477z"/>
		</g>
	</g>
</g>
</svg>
